X:1
T:Title
%%score 1 { 2 | 3 }
L:1/8
Q:1/4=100
M:3/4
K:A
V:1 treble nm="Grand Piano, Soprano"
V:2 bass nm="Choir Pad, Hainault, 77.75 D"
V:3 bass 
V:1
 [CE]C [CE]2 [EA]2 | [EA][EG] [EG]4 | [EG][^DF] [DF]2 [EG]2 | [^DF]E E4 | [CE]C [CE]2 [Ec]2 | %5
w: By~William~James~Kirkpatrick,~1887 * * *|||||
 [Fc][FB] [DF]4 | [DG]3 [DG] [DF][DG] | [CA]6 | [Ec][Ec] [Ec]2 [Ae]2 | [Ge][GB] [GB]4 | %10
w: |||||
 [FA][FA] [FA]2 [Fc]2 | [^Ec][EG] [EG]4 | [DF][DF] [FA]2 [DF]2 | [CE][CA] [Ec]4 | %14
w: ||||
 [DB]3 [DB] [DF][DG] | [CA]6- | [CA]2 z2 z2 |] %17
w: |||
V:2
 A,E, A,2 C2 | CB, B,4 | B,A, A,2 B,2 | A,G, G,4 | A,E, A,2 A,2 | F,F, B,4 | B,3 B, B,B, | A,6 | %8
 A,A, A,2[K:treble] C2 | B,E E4 | CC C2[K:bass] A,2 | G,C C2 B,2 | A,A, A,2 A,2 | A,A, A,4 | %14
 G,3 G, A,B, | A,6- | A,2 z2 z2 |] %17
V:3
 A,,A,, A,,2 A,,2 | E,E, E,4 | B,,B,, B,,2 B,,2 | B,,E, E,4 | A,,A,, A,,2 A,,2 | D,D, D,4 | %6
 E,3 E, E,E, | A,,6 | z2 z2 A,2 | E,E, E,4 | F,F, F,2 F,2 | C,C, C,4 | D,D, D,2 D,2 | A,,A,, A,,4 | %14
 E,3 E, E,E, | A,,6- | A,,2 z2 z2 |] %17

